X:1
T:We Have Heard the Joyful Sound
T:Text: Priscilla J. Owens (1829-1907) Tune: William J. Kirkpatick (1838-1921)
T:76 76 77 76 JESUS SAVES www.hymnary.org/text/we_have_heard_the_joyful_sound
T:We Have Heard the Joyful Sound
T:This hymn is in the public domain.  You may freely use this score for personal and congregational worship.  If you reproduce the score, please credit Hymnary.org as the source. 
T:This hymn is in the public domain.  You may freely use this score for personal and congregational worship.  If you reproduce the score, please credit Hymnary.org as the source. 
Z:This hymn is in the public domain.  You may freely use this score for personal and congregational worship.  If you reproduce the score, please credit Hymnary.org as the source.
%%score ( 1 2 ) ( 3 4 )
L:1/8
M:3/4
K:F
V:1 treble nm="Piano" snm="Pno."
V:2 treble 
V:3 bass nm="Piano" snm="Pno."
V:4 bass 
V:1
 C>C | [A,F]3 [A,C] [CF]>[CG] | [CA]4 [Fc]>[Fc] | [Fc]4 [CA]>[CF] | [EG]4 | C>C | %6
w: 3~Sing a-|bove the bat- tle|strife: Je- sus|saves! Je- sus|saves!|By his|
w: 1~We have|heard the joy- ful|sound: Je- sus|saves! Je- sus|saves!|Spread the|
w: 2~Send it|on the rol- ling|tide: Je- sus|saves! Je- sus|saves!|Tell to|
 [A,F]3 [A,C] [A,F]>[B,G] | [CA]4 [Fc]>[Fc] | [Ec]4 [EG]>[EA] | [CF]4 | [CF]>[CF] | %11
w: death and end- less|life, Je- sus|saves! Je- sus|saves!|Sing it|
w: ti- dings all a-|round: Je- sus|saves! Je- sus|saves!|Bear the|
w: sin- ners far and|wide: Je- sus|saves! Je- sus|saves!|Sing, you|
 [DB]3 [DB] [DB]>[DB] | [DB]4 [CF]>[CG] | [CA]3 [CA] [Fc]>[FA] | [EG]4 | [Ec]>[Ec] | %16
w: soft- ly through the|gloom, when the|heart for mer- cy|craves;|sing in|
w: news to ev- ery|land, climb the|steeps and cross the|waves;|on- ward!|
w: is- lands of the|sea! E- cho|back, you o- cean|caves!|Earth shall|
 [Fc]3 [FA] [FB]>[Fc] | [Fd]4 [Fc]>[Fc] | [Ec]4 [EG]>[EA] | [CF]4 |] %20
w: tri- umph o’er the|tomb: Je- sus|saves! Je- sus|saves!|
w: ’tis our Lord’s com-|mand: Je- sus|saves! Je- sus|saves!|
w: keep her ju- bi-|lee: Je- sus|saves! Je- sus|saves!|
V:2
 C>C | x6 | x6 | x6 | x4 | B,>B, | x6 | x6 | x6 | x4 | x2 | x6 | x6 | x6 | x4 | x2 | x6 | x6 | x6 | %19
 x4 |] %20
V:3
 C,>C, | [F,,C,]3 [F,,F,] [A,,F,]>[C,E,] | F,4 [F,A,]>[F,A,] | [F,A,]4 F,>A, | [C,C]4 | %5
 [C,E,]>[C,E,] | [F,,F,]3 [F,,F,] [F,,F,]>[F,,F,] | [F,,F,]4 [F,A,]>[F,A,] | [C,G,]4 [C,B,]>[C,C] | %9
 [F,A,]4 | [A,,F,]>[A,,F,] | [B,,F,]3 [B,,F,] [B,,F,]>[B,,F,] | [B,,F,]4 [A,,F,]>[G,,E,] | %13
 [F,,F,]3 [F,,F,] [F,A,]>[F,C] | [C,C]4 | [C,B,]>[C,B,] | [F,A,]3 [_E,C] [D,B,]>[C,A,] | %17
 [B,,B,]4 [C,A,]>[C,A,] | [C,G,]4 [C,B,]>[C,C] | [F,,A,]4 |] %20
V:4
 C,>C, | x6 | F,4 x2 | x4 F,>F, | x4 | x2 | x6 | x6 | x6 | x4 | x2 | x6 | x6 | x6 | x4 | x2 | x6 | %17
 x6 | x6 | x4 |] %20

